src/svgs/impact-drill.svg

<svg xmlns="http://www.w3.org/2000/svg" viewBox="0 0 24 24" width="512" height="512" aria-labelledby="gbimpact-drill-desc gbimpact-drill-title"><title id="gbimpact-drill-title">Impact Drill Icon</title><desc id="gbimpact-drill-desc">A picture showing an impact drill.</desc><path d="M19 8a1 1 0 00-1-1h-2a2 2 0 00-2-2H4a3 3 0 00-3 3v10a1 1 0 001 1h4a1 1 0 000-2H5v-2h1v-2H5v-1h7v6a1 1 0 001 1h1a1 1 0 001-1v-6.277A1.994 1.994 0 0016 10h2a1 1 0 001-1h4V8z"/></svg>

<svg xmlns="http://www.w3.org/2000/svg" viewBox="0 0 24 24"><path d="M19,8a1,1,0,0,0-1-1H16a2,2,0,0,0-2-2H4A3,3,0,0,0,1,8V18a1,1,0,0,0,1,1H6a1,1,0,0,0,0-2H5V15H6V13H5V12h7v6a1,1,0,0,0,1,1h1a1,1,0,0,0,1-1V11.723A1.994,1.994,0,0,0,16,10h2a1,1,0,0,0,1-1h4V8Z"/></svg>
